Newaita-dark/apps/32/keep.svg

<?xml version="1.0" encoding="UTF-8"?>
<svg xmlns="http://www.w3.org/2000/svg" xmlns:xlink="http://www.w3.org/1999/xlink" width="32pt" height="32pt" viewBox="0 0 32 32" version="1.1">
<defs>
<linearGradient id="linear0" gradientUnits="userSpaceOnUse" x1="254" y1="233.5" x2="254" y2="254.666672" gradientTransform="matrix(0.062506,0,0,0.062506,-0.00000381506,13.438785)">
<stop offset="0" style="stop-color:rgb(0%,0%,0%);stop-opacity:0.27451;"/>
<stop offset="1" style="stop-color:rgb(0%,0%,0%);stop-opacity:0;"/>
</linearGradient>
<radialGradient id="radial0" gradientUnits="userSpaceOnUse" cx="450.908936" cy="189.579361" fx="450.908936" fy="189.579361" r="21.166656" gradientTransform="matrix(0.00000017417,-0.0781325,-0.140638,-0.000000101539,50.146086,63.595333)">
<stop offset="0" style="stop-color:rgb(0%,0%,0%);stop-opacity:0.313725;"/>
<stop offset="0.222222" style="stop-color:rgb(0%,0%,0%);stop-opacity:0.27451;"/>
<stop offset="1" style="stop-color:rgb(0%,0%,0%);stop-opacity:0;"/>
</radialGradient>
<radialGradient id="radial1" gradientUnits="userSpaceOnUse" cx="450.908936" cy="189.579361" fx="450.908936" fy="189.579361" r="21.166656" gradientTransform="matrix(-0.00000017417,0.0781325,0.140638,0.000000101539,-18.393049,-7.52748)">
<stop offset="0" style="stop-color:rgb(0%,0%,0%);stop-opacity:0.313725;"/>
<stop offset="0.222222" style="stop-color:rgb(0%,0%,0%);stop-opacity:0.27451;"/>
<stop offset="1" style="stop-color:rgb(0%,0%,0%);stop-opacity:0;"/>
</radialGradient>
<radialGradient id="radial2" gradientUnits="userSpaceOnUse" cx="450.908936" cy="189.579361" fx="450.908936" fy="189.579361" r="21.166656" gradientTransform="matrix(-0.00000017417,-0.0781325,0.140638,-0.000000101539,-18.393049,63.595333)">
<stop offset="0" style="stop-color:rgb(0%,0%,0%);stop-opacity:0.313725;"/>
<stop offset="0.222222" style="stop-color:rgb(0%,0%,0%);stop-opacity:0.27451;"/>
<stop offset="1" style="stop-color:rgb(0%,0%,0%);stop-opacity:0;"/>
</radialGradient>
<radialGradient id="radial3" gradientUnits="userSpaceOnUse" cx="450.908936" cy="189.579361" fx="450.908936" fy="189.579361" r="21.166656" gradientTransform="matrix(0.00000017417,0.0781325,-0.140638,0.000000101539,50.146084,-7.527479)">
<stop offset="0" style="stop-color:rgb(0%,0%,0%);stop-opacity:0.313725;"/>
<stop offset="0.222222" style="stop-color:rgb(0%,0%,0%);stop-opacity:0.27451;"/>
<stop offset="1" style="stop-color:rgb(0%,0%,0%);stop-opacity:0;"/>
</radialGradient>
<linearGradient id="linear1" gradientUnits="userSpaceOnUse" x1="960" y1="495.118103" x2="960" y2="175.118134" >
<stop offset="0" style="stop-color:rgb(100%,80%,50.196078%);stop-opacity:1;"/>
<stop offset="1" style="stop-color:rgb(100%,87.843137%,69.803922%);stop-opacity:1;"/>
</linearGradient>
<linearGradient id="linear2" gradientUnits="userSpaceOnUse" x1="960" y1="1455.118164" x2="960" y2="615.118103" >
<stop offset="0" style="stop-color:rgb(87.843137%,87.843137%,87.843137%);stop-opacity:1;"/>
<stop offset="1" style="stop-color:rgb(93.333333%,93.333333%,93.333333%);stop-opacity:1;"/>
</linearGradient>
</defs>
<g id="surface1">
<path style=" stroke:none;fill-rule:nonzero;fill:url(#linear0);" d="M 7.9375 28.035156 L 23.816406 28.035156 L 23.816406 29.355469 L 7.9375 29.355469 Z M 7.9375 28.035156 "/>
<path style=" stroke:none;fill-rule:nonzero;fill:url(#radial0);" d="M 23.816406 28.035156 L 26.460938 28.035156 L 26.460938 26.710938 L 23.816406 26.710938 Z M 23.816406 28.035156 "/>
<path style=" stroke:none;fill-rule:nonzero;fill:url(#radial1);" d="M 7.9375 28.035156 L 5.292969 28.035156 L 5.292969 29.355469 L 7.9375 29.355469 Z M 7.9375 28.035156 "/>
<path style=" stroke:none;fill-rule:nonzero;fill:url(#radial2);" d="M 7.9375 28.035156 L 5.292969 28.035156 L 5.292969 26.710938 L 7.9375 26.710938 Z M 7.9375 28.035156 "/>
<path style=" stroke:none;fill-rule:nonzero;fill:url(#radial3);" d="M 23.816406 28.035156 L 26.460938 28.035156 L 26.460938 29.355469 L 23.816406 29.355469 Z M 23.816406 28.035156 "/>
<path style=" stroke:none;fill-rule:nonzero;fill:rgb(100%,67.058824%,25.098039%);fill-opacity:1;" d="M 6.613281 2.894531 L 25.136719 2.894531 C 25.867188 2.894531 26.460938 3.488281 26.460938 4.21875 L 26.460938 26.710938 C 26.460938 27.441406 25.867188 28.035156 25.136719 28.035156 L 6.613281 28.035156 C 5.882812 28.035156 5.292969 27.441406 5.292969 26.710938 L 5.292969 4.21875 C 5.292969 3.488281 5.882812 2.894531 6.613281 2.894531 Z M 6.613281 2.894531 "/>
<path style="fill-rule:nonzero;fill:url(#linear1);stroke-width:11.338583;stroke-linecap:round;stroke-linejoin:round;stroke:rgb(12.941177%,12.941177%,12.941177%);stroke-opacity:1;stroke-miterlimit:4;" d="M 399.883094 175.022665 C 355.714081 175.022665 320.048194 210.688553 320.048194 255.093763 L 320.048194 495.070859 L 1600.004772 495.070859 L 1600.004772 255.093763 C 1600.004772 210.688553 1564.338884 175.022665 1519.933674 175.022665 Z M 399.883094 175.022665 " transform="matrix(0.016538,0,0,0.016538,0,0)"/>
<path style=" stroke:none;fill-rule:nonzero;fill:rgb(0%,0%,0%);fill-opacity:0.196078;" d="M 6.613281 27.960938 C 5.882812 27.960938 5.292969 27.367188 5.292969 26.636719 L 5.292969 26.472656 C 5.292969 27.203125 5.882812 27.792969 6.613281 27.792969 L 25.136719 27.792969 C 25.871094 27.792969 26.460938 27.203125 26.460938 26.472656 L 26.460938 26.636719 C 26.460938 27.367188 25.871094 27.960938 25.136719 27.960938 Z M 6.613281 27.960938 "/>
<path style=" stroke:none;fill-rule:nonzero;fill:rgb(100%,100%,100%);fill-opacity:0.392157;" d="M 6.613281 2.972656 C 5.882812 2.972656 5.292969 3.5625 5.292969 4.292969 L 5.292969 4.460938 C 5.292969 3.726562 5.882812 3.136719 6.613281 3.136719 L 25.136719 3.136719 C 25.871094 3.136719 26.460938 3.726562 26.460938 4.460938 L 26.460938 4.292969 C 26.460938 3.5625 25.871094 2.972656 25.136719 2.972656 Z M 6.613281 2.972656 "/>
<path style=" stroke:none;fill-rule:nonzero;fill:rgb(12.941177%,12.941177%,12.941177%);fill-opacity:1;" d="M 6.617188 2.800781 C 5.832031 2.800781 5.199219 3.4375 5.199219 4.21875 L 5.199219 26.710938 C 5.199219 27.496094 5.832031 28.128906 6.617188 28.128906 L 25.136719 28.128906 C 25.921875 28.128906 26.554688 27.496094 26.554688 26.710938 L 26.554688 4.21875 C 26.554688 3.4375 25.921875 2.800781 25.136719 2.800781 Z M 6.617188 2.988281 L 25.136719 2.988281 C 25.820312 2.988281 26.367188 3.535156 26.367188 4.21875 L 26.367188 26.710938 C 26.367188 27.394531 25.820312 27.941406 25.136719 27.941406 L 6.617188 27.941406 C 5.933594 27.941406 5.386719 27.394531 5.386719 26.710938 L 5.386719 4.21875 C 5.386719 3.535156 5.933594 2.988281 6.617188 2.988281 Z M 6.617188 2.988281 "/>
<path style="fill-rule:nonzero;fill:url(#linear2);stroke-width:11.338583;stroke-linecap:round;stroke-linejoin:miter;stroke:rgb(12.941177%,12.941177%,12.941177%);stroke-opacity:1;stroke-miterlimit:4;" d="M 959.908384 615.059407 C 804.962542 615.059407 680.013838 740.008112 680.013838 895.190151 C 680.013838 1007.14797 745.204466 1103.516725 839.919836 1148.394331 L 839.919836 1175.084697 C 828.818533 1175.084697 820.07921 1183.587823 820.07921 1194.216729 L 820.07921 1196.106313 C 820.07921 1206.499022 828.818533 1215.002147 839.919836 1215.002147 L 839.919836 1275.232619 C 828.818533 1275.232619 820.07921 1283.735745 820.07921 1294.128453 L 820.07921 1296.018037 C 820.07921 1306.646944 828.818533 1315.150069 839.919836 1315.150069 L 839.919836 1375.144343 C 839.919836 1397.346948 857.870878 1415.061793 880.073484 1415.061793 L 899.91411 1415.061793 L 899.91411 1435.138617 C 899.91411 1446.23992 917.865152 1455.215441 940.067758 1455.215441 L 979.985208 1455.215441 C 1002.187813 1455.215441 1019.902658 1446.23992 1019.902658 1435.138617 L 1019.902658 1415.061793 L 1039.979482 1415.061793 C 1062.182087 1415.061793 1079.896932 1397.346948 1079.896932 1375.144343 L 1079.896932 1355.067519 C 1090.998234 1355.067519 1099.973756 1346.564394 1099.973756 1335.935487 L 1099.973756 1334.282101 C 1099.973756 1323.653195 1090.998234 1315.150069 1079.896932 1315.150069 L 1079.896932 1255.155795 C 1090.998234 1255.155795 1099.973756 1246.65267 1099.973756 1236.023763 L 1099.973756 1234.134179 C 1099.973756 1223.741471 1090.998234 1215.002147 1079.896932 1215.002147 L 1079.896932 1148.394331 C 1174.848499 1103.516725 1240.039128 1007.14797 1240.039128 895.190151 C 1240.039128 740.008112 1115.090423 615.059407 959.908384 615.059407 Z M 959.908384 735.047955 C 1048.718805 735.047955 1120.05058 806.37973 1120.05058 895.190151 C 1120.05058 983.764375 1048.718805 1055.096149 959.908384 1055.096149 C 871.33416 1055.096149 800.002386 983.764375 800.002386 895.190151 C 800.002386 806.37973 871.33416 735.047955 959.908384 735.047955 Z M 959.908384 735.047955 " transform="matrix(0.016538,0,0,0.016538,0,0)"/>
</g>
</svg>

<svg xmlns="http://www.w3.org/2000/svg" width="32pt" height="32pt" viewBox="0 0 32 32"><defs><linearGradient id="a" gradientUnits="userSpaceOnUse" x1="254" y1="233.5" x2="254" y2="254.667" gradientTransform="matrix(.0625 0 0 .0625 0 13.439)"><stop offset="0" stop-opacity=".275"/><stop offset="1" stop-opacity="0"/></linearGradient><radialGradient id="b" gradientUnits="userSpaceOnUse" cx="450.909" cy="189.579" fx="450.909" fy="189.579" r="21.167" gradientTransform="matrix(0 -.07813 -.14064 0 50.146 63.595)"><stop offset="0" stop-opacity=".314"/><stop offset=".222" stop-opacity=".275"/><stop offset="1" stop-opacity="0"/></radialGradient><radialGradient id="c" gradientUnits="userSpaceOnUse" cx="450.909" cy="189.579" fx="450.909" fy="189.579" r="21.167" gradientTransform="matrix(0 .07813 .14064 0 -18.393 -7.527)"><stop offset="0" stop-opacity=".314"/><stop offset=".222" stop-opacity=".275"/><stop offset="1" stop-opacity="0"/></radialGradient><radialGradient id="d" gradientUnits="userSpaceOnUse" cx="450.909" cy="189.579" fx="450.909" fy="189.579" r="21.167" gradientTransform="matrix(0 -.07813 .14064 0 -18.393 63.595)"><stop offset="0" stop-opacity=".314"/><stop offset=".222" stop-opacity=".275"/><stop offset="1" stop-opacity="0"/></radialGradient><radialGradient id="e" gradientUnits="userSpaceOnUse" cx="450.909" cy="189.579" fx="450.909" fy="189.579" r="21.167" gradientTransform="matrix(0 .07813 -.14064 0 50.146 -7.527)"><stop offset="0" stop-opacity=".314"/><stop offset=".222" stop-opacity=".275"/><stop offset="1" stop-opacity="0"/></radialGradient><linearGradient id="f" gradientUnits="userSpaceOnUse" x1="960" y1="495.118" x2="960" y2="175.118"><stop offset="0" stop-color="#ffcc80"/><stop offset="1" stop-color="#ffe0b2"/></linearGradient><linearGradient id="g" gradientUnits="userSpaceOnUse" x1="960" y1="1455.118" x2="960" y2="615.118"><stop offset="0" stop-color="#e0e0e0"/><stop offset="1" stop-color="#eee"/></linearGradient></defs><path d="M7.938 28.035h15.878v1.32H7.938zm0 0" fill="url(#a)"/><path d="M23.816 28.035h2.645v-1.324h-2.645zm0 0" fill="url(#b)"/><path d="M7.938 28.035H5.293v1.32h2.644zm0 0" fill="url(#c)"/><path d="M7.938 28.035H5.293v-1.324h2.644zm0 0" fill="url(#d)"/><path d="M23.816 28.035h2.645v1.32h-2.645zm0 0" fill="url(#e)"/><path d="M6.613 2.895h18.524c.73 0 1.324.593 1.324 1.324V26.71c0 .73-.594 1.324-1.324 1.324H6.613c-.73 0-1.32-.594-1.32-1.324V4.219c0-.73.59-1.324 1.32-1.324zm0 0" fill="#ffab40"/><path d="M399.883 175.023c-44.169 0-79.835 35.666-79.835 80.07v239.978h1279.957V255.094a79.838 79.838 0 0 0-80.071-80.071zm0 0" transform="rotate(.891) scale(.01654)" fill="url(#f)" stroke-width="11.339" stroke-linecap="round" stroke-linejoin="round" stroke="#212121"/><path d="M6.613 27.96c-.73 0-1.32-.593-1.32-1.323v-.164c0 .73.59 1.32 1.32 1.32h18.524a1.32 1.32 0 0 0 1.324-1.32v.164c0 .73-.59 1.324-1.324 1.324zm0 0" fill-opacity=".196"/><path d="M6.613 2.973c-.73 0-1.32.59-1.32 1.32v.168c0-.734.59-1.324 1.32-1.324h18.524c.734 0 1.324.59 1.324 1.324v-.168c0-.73-.59-1.32-1.324-1.32zm0 0" fill="#fff" fill-opacity=".392"/><path d="M6.617 2.8C5.832 2.8 5.2 3.439 5.2 4.22V26.71c0 .785.633 1.418 1.418 1.418h18.52c.785 0 1.418-.633 1.418-1.418V4.219c0-.782-.633-1.418-1.418-1.418zm0 .188h18.52c.683 0 1.23.547 1.23 1.23v22.493c0 .684-.547 1.23-1.23 1.23H6.617c-.683 0-1.23-.546-1.23-1.23V4.219c0-.684.547-1.23 1.23-1.23zm0 0" fill="#212121"/><path d="M959.908 615.06c-154.945 0-279.894 124.948-279.894 280.13 0 111.958 65.19 208.327 159.906 253.204v26.69c-11.101 0-19.84 8.504-19.84 19.133v1.89c0 10.392 8.739 18.895 19.84 18.895v60.23c-11.101 0-19.84 8.504-19.84 18.896v1.89c0 10.629 8.739 19.132 19.84 19.132v59.994c0 22.203 17.95 39.918 40.153 39.918h19.841v20.077c0 11.1 17.951 20.076 40.154 20.076h39.917c22.203 0 39.918-8.975 39.918-20.076v-20.077h20.076c22.203 0 39.918-17.715 39.918-39.918v-20.076c11.101 0 20.077-8.504 20.077-19.133v-1.653c0-10.629-8.976-19.132-20.077-19.132v-59.994c11.101 0 20.077-8.503 20.077-19.132v-1.89c0-10.393-8.976-19.132-20.077-19.132v-66.608c94.951-44.877 160.142-141.246 160.142-253.204 0-155.182-124.949-280.13-280.13-280.13zm0 119.988c88.81 0 160.143 71.332 160.143 160.142 0 88.574-71.332 159.906-160.143 159.906-88.574 0-159.906-71.332-159.906-159.906 0-88.81 71.332-160.142 159.906-160.142zm0 0" transform="rotate(.891) scale(.01654)" fill="url(#g)" stroke-width="11.339" stroke-linecap="round" stroke="#212121"/></svg>
